X: 2000
T: Yok Başka Yerin Lûtfu...
C: Münir Nurettin Selçuk
O: Turkey
F: http://compmusic.upf.edu/node/140
N: nihavent--sarki--aksak--yok_baska--munir_nurettin_selcuk
N: makam= nihavent
N: form= sarki
N: usul= aksak = 9/8
M: 9/8
L: 1/16
K: C _B _e  
Q: 1/4=216
%%MIDI tuningsystem comma53
G^FG2 BAB2 dcd2 g2f2 e2 | d3gf2 e2d4f2 e2d2  | \
w:  ARANAĞME  |   | 
c3e d2c2 B2AB dcBA G^F | 
w:   | 
G^F G2BA B2dc d2g2 f2e2  | d3g f2e2 d4 f2e2 d2 | \
w:  ARANAĞME  |   | 
c3ed2 c2B2 ABdc BAG^F  | 
w:   | 
G6D2 EDE^F G4 z2 | G4d4^c2 e2d6  | A4 c2BA AGG^F G6 | 
w:   |  Yok  baş ka  ye rin   |  lût fu  ne  *  yaz *  *  *  dan   | 
z4d2 e2d2 c2B2 c2e2  | d6A2 BcBA G4 z2 | \
w:  ne  de  kış  |  tan   SAZ  | 
G4d4^c2 e2d6  | 
w:  Yok  baş ka  ye rin   | 
A4 c2BA AGG^F G6 | z4d2 e2d2 c2B2 c2e2  | \
w:  lût fu  ne  *  yaz *  *  *  dan   |  ne  de  kış  | 
d6A2 BABc d2e2 =e2 | 
w:  tan   SAZ  | 
f4f4f2 edg4f2  | f3e e2ed dcc=B c6 | \
w:  Bir  tat lı  hu *  zur_  |  al *  ma ya  *  gel *  *  *  dik   | 
z4d2 e2d2 c2B2 A2c2  | 
w:  Ka la mış  | 
B6e2 d2c2 B2A2 G2 | G4A2 c2B2 A2G2 ^F2A2  | \
w:  tan    |  ah  Ka la mış  | 
G6de dcBc d2e2 =e2 | 
w:  tan   SAZ  | 
f4f4f2 edg4f2  | f3e e2ed dcc=B c6 | \
w:  Bir  tat lı  hu *  zur_  |  al *  ma ya  *  gel *  *  *  dik   | 
z4d2 e2d2 c2B2 A2c2  | 
w:  Ka la mış  | 
B6e2 d2c2 B2A2 G2 | G4A2 c2B2 A2G2 ^F2A2  | \
w:  tan    |  ah  Ka la mış  | 
G6B2 ABcA B6 | 
w:  tan SAZ  | 
F4B4A2 {d}cBB4A2  | G4 A2{c}BA AGG^F G6 | \
w:  Yok  zer re  *  te *  sel  |  li  ne  *  gü *  lüş *  *  *  ten   | 
z4d2 e2d2 ^c2B2 c2{f}ed  | 
w:  ne  ba kış  | 
d6ed cBAc B4 z2 | F4B4A2 {d}cBB4A2  | \
w:  tan   SAZ  |  Yok  zer re  *  te *  sel  | 
G4 A2{c}BA AGG^F G6 | 
w:  li  ne  *  gü *  lüş *  *  *  ten   | 
z4d2 e2d2 ^c2B2 c2{f}ed  | d6de dcBc d2e2 =e2 | \
w:  ne  ba kış  |  tan   SAZ  | 
f4f4f2 edg4f2  | 
w:  Bir  tat lı  hu *  zur_  | 
f3e e2ed dcc=B c6 | z4d2 e2d2 c2B2 A2c2  | \
w:  al *  ma ya  *  gel *  *  *  dik   |  Ka la mış  | 
B6e2 d2c2 B2A2 G2 | 
w:  tan    | 
G4A2 c2B2 A2G2 ^F2A2  | G6de dcBc d2d2 =e2 | \
w:  ah  Ka la mış  |  tan   SAZ  | 
f4f4f2 edg4f2  | 
w:  Bir  tat lı  hu *  zur_  | 
f3e e2ed dcc=B c6 | z4d2 e2d2 c2B2 A2c2  | \
w:  al *  ma ya  *  gel *  *  *  dik   |  Ka la mış  | 
B6e2 d2c2 B2A2 G2 | 
w:  tan    | 
G4A2 c2B2 A2G2 ^F2A2  | G6D2 EDE^F G4 z2 | \
w:  ah  Ka la mış  |  tan SAZ  | 
G^F G2BA B2dc d2g2 f2e2  | 
w:  ARANAĞME  | 
d3g f2e2 d4 f2e2 d2 | c3ed2 c2B2 ABdc BAG^F  | 
w:   |   | 
G^FG2 BAB2 dcd2 g2f2 e2 | d3gf2 e2d4f2 e2d2  | \
w:  ARANAĞME  |   | 
c3e d2c2 B2AB dcBA G^F | 
w:   | 
G6 d2_1/4e2 f2g4z2  | f4 g4 g2g2 g4 f2 | \
w:  SAZ  |  İs tan bul_ u  sev  | 
f4g2 a2ag gfg4z2  | 
w:  mez se  gö nül   | 
f4 g2g2 g2f2 _1/4e2f2 gf | f12gf _1/4ede2  | \
w:  aş kı  ne  an  |  lar    | 
f4 g2g2 g2f2 _1/4e2a2 {b}ag | 
w:  aş kı  ne  an  | 
g6 abag fga4z2  | g4 a4 a2a2 a4 g2 | \
w:  lar   SAZ  |  Düş sün  su ya  yer   | 
b4b2 baag gfg6  | 
w:  yer  e ri *  sin   | 
f4 g2g2 g2a2 f2_1/4e2 d2 | d2 d'6d'c' bagf edc2  | \
w:  es ki  za man  |  lar    | 
a2g2 baag f2_1/4e2 gfe2 ed | 
w:  es *  ki  *  za *  man  | 
d6 g2g^f _7/8efg6  | g4 _1/4b3_7/8a a2ag g4 ^f2 | \
w:  lar   SAZ  |  Sar sın  *  bi zi  *  ak  | 
^f3ef2 g2gf ede4d2  | 
w:  şam  *  da  şa rap   | 
d2e2 ^f2g2 f2e2 d2^c2 e2 | d6 g2g2 f2e2 d2c2  | \
w:  ren gi  du man  |  lar   şa rap   | 
c3e e2e2 d2c2 B4 c2 | 
w:  ren *  gi  du man  | 
d6 fedc Bcd2 e2=e2  | f4 f4 f2ed g4 f2 | \
w:  lar   SAZ  |  Bir  tat lı  hu *  zur_  | 
f3ee2 eddc c=Bc6  | 
w:  al *  ma ya  *  gel *  *  *  dik   | 
z4 d2e2 d2c2 B2A2 c2 | B6 e2d2 c2B2 A2G2  | \
w:  Ka la mış  |  tan    | 
G4 A2c2 B2A2 G2^F2 A2 | 
w:  ah  Ka la mış  | 
G6 dedc Bcd2 e2=e2  | f4 f4 f2ed g4 f2 | \
w:  tan   SAZ  |  Bir  tat lı  hu *  zur_  | 
f3ee2 eddc c=Bc6  | 
w:  al *  ma ya  *  gel *  *  *  dik   | 
z4 d2e2 d2c2 B2A2 c2 | B6 e2d2 c2B2 A2G2  | \
w:  Ka la mış  |  tan    | 
G4 A2c2 B2A2 G2^F2 A2 | 
w:  ah  Ka la mış  | 
G6 |
w:  tan  | 


